src/assets/images/template_image/4.svg

<svg width="48" height="48" viewBox="0 0 48 48" fill="none" xmlns="http://www.w3.org/2000/svg"><path opacity=".2" d="M24 46C36.1503 46 46 36.1503 46 24 46 11.8497 36.1503 2 24 2 11.8497 2 2 11.8497 2 24 2 36.1503 11.8497 46 24 46z" fill="#659ef1"/><path d="M20.9735 19.7419C21.6266 19.7206 24.2835 19.7372 24.8659 19.7412L24.9791 19.7419C24.9791 19.7419 25.4199 19.9033 25.4199 20.5665 25.4199 21.0503 24.9779 21.0322 24.9779 21.6132 24.9779 21.9519 25.4849 22.0645 25.4849 22.7741 25.4849 23.1774 24.9562 23.4655 24.9562 23.8525 24.9562 24.2396 25.0934 24.4192 25.3029 24.6128 25.5124 24.8064 27.4546 25.6452 27.4546 29.1775V35.2258C27.4546 35.2258 27.5575 36 26.9697 36L18.5687 35.9991C18.5145 35.9869 18 35.8421 18 34.7419L18.0005 29.3409C18.0096 28.6959 18.1747 24.1774 20.9735 19.7419zM25.4848 17.8065V19.3549H20.7576V17.8065h4.7272zM28.985 14.3225C28.985 14.3225 29.013 16.7683 30.8042 18.5806 30.8042 18.5806 31.1261 18.8226 30.8929 19.1175 30.8011 19.2333 30.6081 19.2824 30.0325 18.9437 28.9259 18.2926 27.2777 16.9033 26.8298 14.3225H28.985zM29.4242 12V13.9355H26.2979L24.8494 17.4194H21.3229L21.2181 16.2581 18.9494 16.2979C18.9494 16.2979 17.7754 16.1853 18.8698 15.221 19.4691 14.6927 21.4484 12.7825 21.7384 12.5024L21.774 12.468C21.774 12.468 22.2258 12 22.9605 12H29.4242zM29.8182 12.242 31 12.6534V13.4032L29.8182 13.7179V12.242z" fill="#659ef1"/></svg>

<svg width="48" height="48" fill="none" xmlns="http://www.w3.org/2000/svg"><path opacity=".2" d="M24 46c12.15 0 22-9.85 22-22S36.15 2 24 2 2 11.85 2 24s9.85 22 22 22z" fill="#659ef1"/><path d="M20.974 19.742c.653-.021 3.31-.005 3.892 0h.113s.44.161.44.825c0 .483-.441.465-.441 1.046 0 .339.507.451.507 1.161 0 .403-.529.691-.529 1.078 0 .388.137.567.347.76.21.194 2.152 1.033 2.152 4.566v6.048s.103.774-.485.774h-8.401c-.054-.013-.569-.158-.569-1.258V29.34c.01-.645.175-5.164 2.974-9.6zm4.51-1.936v1.549h-4.726v-1.549h4.727zm3.501-3.484s.028 2.446 1.82 4.259c0 0 .321.242.088.537-.092.115-.285.164-.86-.174-1.107-.651-2.755-2.04-3.203-4.621h2.155zm.44-2.322v1.935h-3.127l-1.449 3.484h-3.526l-.105-1.16-2.269.039s-1.174-.113-.08-1.077c.6-.528 2.58-2.438 2.87-2.719l.035-.034S22.226 12 22.96 12h6.464zm.393.242l1.182.411v.75l-1.182.315v-1.476z" fill="#659ef1"/></svg>
